X:1
T: The Marchioness of Normandy
C:William Marshall
R:Jig
Q:180
K:Bb
M:6/8
L:1/16
|:f2|d2f2d2 B6|d2f2d2 B6|G2A2B2 c2d2e2|d2c2B2 A2G2F2|
d2f2d2 B6|d2f2d2 B6|e2f2g2 g2a2b2|a2g2=e2f4:|
|:z2|F4F2 F2G2A2|B2c2d2 e4c2|B4B2 B2c2d2|e2d2e2 g4f2|
|1e4g2 g4b2|d4f2 f4b2|d2c2B2 F2G2A2|B6B4:|
|2b4B2 f2g2a2|b4B2 g4f2|d4B2 F2G2A2|B6B4||
